dist/images/facebook-official.svg

<?xml version="1.0" encoding="UTF-8" standalone="no"?>
<svg width="30px" height="30px" viewBox="0 0 30 30" version="1.1" xmlns="http://www.w3.org/2000/svg" xmlns:xlink="http://www.w3.org/1999/xlink">
    <!-- Generator: Sketch 41.2 (35397) - http://www.bohemiancoding.com/sketch -->
    <title>facebook-official</title>
    <desc>Created with Sketch.</desc>
    <defs></defs>
    <g id="Pages" stroke="none" stroke-width="1" fill="none" fill-rule="evenodd">
        <g id="Homepage" transform="translate(-530.000000, -1717.000000)" fill="#FFFFFF">
            <g id="footer" transform="translate(0.000000, 1632.000000)">
                <g id="facebook-official" transform="translate(530.000000, 85.000000)">
                    <path d="M28.3398438,0 C28.7955729,0 29.1861979,0.162760417 29.5117188,0.48828125 C29.8372396,0.813802083 30,1.20442708 30,1.66015625 L30,28.3398438 C30,28.7955729 29.8372396,29.1861979 29.5117188,29.5117188 C29.1861979,29.8372396 28.7955729,30 28.3398438,30 L20.703125,30 L20.703125,18.3789062 L24.5898438,18.3789062 L25.1757812,13.8476562 L20.703125,13.8476562 L20.703125,10.9570312 C20.703125,10.2278646 20.8561198,9.68098958 21.1621094,9.31640625 C21.468099,8.95182292 22.0638021,8.76953125 22.9492188,8.76953125 L25.3320312,8.75 L25.3320312,4.70703125 C24.5117188,4.58984375 23.3528646,4.53125 21.8554688,4.53125 C20.0846354,4.53125 18.6686198,5.05208333 17.6074219,6.09375 C16.546224,7.13541667 16.015625,8.60677083 16.015625,10.5078125 L16.015625,13.8476562 L12.109375,13.8476562 L12.109375,18.3789062 L16.015625,18.3789062 L16.015625,30 L1.66015625,30 C1.20442708,30 0.813802083,29.8372396 0.48828125,29.5117188 C0.162760417,29.1861979 0,28.7955729 0,28.3398438 L0,1.66015625 C0,1.20442708 0.162760417,0.813802083 0.48828125,0.48828125 C0.813802083,0.162760417 1.20442708,0 1.66015625,0 L28.3398438,0 Z" id="Shape"></path>
                </g>
            </g>
        </g>
    </g>
</svg>

<svg width="30" height="30" viewBox="0 0 30 30" xmlns="http://www.w3.org/2000/svg"><title>facebook-official</title><path d="M28.34 0c.456 0 .846.163 1.172.488.325.326.488.716.488 1.172v26.68c0 .456-.163.846-.488 1.172A1.598 1.598 0 0 1 28.34 30h-7.637V18.379h3.887l.586-4.531h-4.473v-2.891c0-.73.153-1.276.46-1.64.305-.365.9-.547 1.786-.547l2.383-.02V4.707c-.82-.117-1.98-.176-3.477-.176-1.77 0-3.186.521-4.248 1.563-1.06 1.041-1.591 2.513-1.591 4.414v3.34h-3.907v4.53h3.907V30H1.66c-.456 0-.846-.163-1.172-.488A1.598 1.598 0 0 1 0 28.34V1.66C0 1.204.163.814.488.488A1.598 1.598 0 0 1 1.66 0h26.68z" fill="#FFF" fill-rule="evenodd"/></svg>
